icons/git-compare-24.svg

<svg width="24" height="24" viewBox="0 0 24 24" xmlns="http://www.w3.org/2000/svg">
  <path fill-rule="evenodd" clip-rule="evenodd" d="M19.75 17.5C18.7835 17.5 18 18.2835 18 19.25C18 20.2165 18.7835 21 19.75 21C20.7165 21 21.5 20.2165 21.5 19.25C21.5 18.2835 20.7165 17.5 19.75 17.5ZM16.5 19.25C16.5 17.4551 17.9551 16 19.75 16C21.5449 16 23 17.4551 23 19.25C23 21.0449 21.5449 22.5 19.75 22.5C17.9551 22.5 16.5 21.0449 16.5 19.25Z"/>
  <path fill-rule="evenodd" clip-rule="evenodd" d="M13.9053 1.71967C14.1982 2.01256 14.1982 2.48744 13.9053 2.78033L12.6857 4H16.75C18.8211 4 20.5 5.67893 20.5 7.75V16.5C20.5 16.9142 20.1642 17.25 19.75 17.25C19.3358 17.25 19 16.9142 19 16.5V7.75C19 6.50736 17.9926 5.5 16.75 5.5H12.6857L13.9053 6.71967C14.1982 7.01256 14.1982 7.48744 13.9053 7.78033C13.6124 8.07322 13.1376 8.07322 12.8447 7.78033L10.3447 5.28033C10.0518 4.98744 10.0518 4.51256 10.3447 4.21967L12.8447 1.71967C13.1376 1.42678 13.6124 1.42678 13.9053 1.71967Z"/>
  <path fill-rule="evenodd" clip-rule="evenodd" d="M4.25 6.5C5.2165 6.5 6 5.7165 6 4.75C6 3.7835 5.2165 3 4.25 3C3.2835 3 2.5 3.7835 2.5 4.75C2.5 5.7165 3.2835 6.5 4.25 6.5ZM7.5 4.75C7.5 6.54493 6.04493 8 4.25 8C2.45507 8 1 6.54493 1 4.75C1 2.95507 2.45507 1.5 4.25 1.5C6.04493 1.5 7.5 2.95507 7.5 4.75Z"/>
  <path fill-rule="evenodd" clip-rule="evenodd" d="M10.0947 22.2803C9.80178 21.9874 9.80178 21.5126 10.0947 21.2197L11.3143 20H7.25C5.17893 20 3.5 18.3211 3.5 16.25L3.5 7.5C3.5 7.08579 3.83579 6.75 4.25 6.75C4.66421 6.75 5 7.08579 5 7.5L5 16.25C5 17.4926 6.00736 18.5 7.25 18.5H11.3143L10.0947 17.2803C9.80178 16.9874 9.80178 16.5126 10.0947 16.2197C10.3876 15.9268 10.8624 15.9268 11.1553 16.2197L13.6553 18.7197C13.9482 19.0126 13.9482 19.4874 13.6553 19.7803L11.1553 22.2803C10.8624 22.5732 10.3876 22.5732 10.0947 22.2803Z"/>
</svg>

<svg xmlns="http://www.w3.org/2000/svg" width="24" height="24" viewBox="0 0 24 24"><path fill-rule="evenodd" d="M19.75 17.5a1.75 1.75 0 100 3.5 1.75 1.75 0 000-3.5zm-3.25 1.75a3.25 3.25 0 116.5 0 3.25 3.25 0 01-6.5 0z"/><path fill-rule="evenodd" d="M13.905 1.72a.75.75 0 010 1.06L12.685 4h4.065a3.75 3.75 0 013.75 3.75v8.75a.75.75 0 01-1.5 0V7.75a2.25 2.25 0 00-2.25-2.25h-4.064l1.22 1.22a.75.75 0 01-1.061 1.06l-2.5-2.5a.75.75 0 010-1.06l2.5-2.5a.75.75 0 011.06 0zM4.25 6.5a1.75 1.75 0 100-3.5 1.75 1.75 0 000 3.5zM7.5 4.75a3.25 3.25 0 11-6.5 0 3.25 3.25 0 016.5 0z"/><path fill-rule="evenodd" d="M10.095 22.28a.75.75 0 010-1.06l1.22-1.22H7.25a3.75 3.75 0 01-3.75-3.75V7.5a.75.75 0 011.5 0v8.75a2.25 2.25 0 002.25 2.25h4.064l-1.22-1.22a.75.75 0 111.061-1.06l2.5 2.5a.75.75 0 010 1.06l-2.5 2.5a.75.75 0 01-1.06 0z"/></svg>
